!!!COM: Palestrina, Giovanni Perluigi da
!!!OPR: Missa Ecce ego Joannes
!!!OMD: Credo
!!!OTL: Et unam sanctam
**kern	**kern	**kern	**kern	**kern	**kern
*Ibass	*Ibarit	*Itenor	*Itenor	*Icalto	*Icant
!Bassus	!Baritone	!Tenor 2	!Tenor 1	!Altus	!Cantus
*clefF4	*clefF4	*clefGv2	*clefGv2	*clefG2	*clefG2
*k[]	*k[]	*k[]	*k[]	*k[]	*k[]
*G:mix	*G:mix	*G:mix	*G:mix	*G:mix	*G:mix
*M4/2	*M4/2	*M4/2	*M4/2	*M4/2	*M4/2
=153	=153	=153	=153	=153	=153
1c	2C	2e	1c	2r	2r
.	2c	2g	.	2cc	2ee
1r	2c	2g	1r	2cc	2ee
.	2c	2e	.	2cc	2gg
=154	=154	=154	=154	=154	=154
0r	1F	1a	0r	1cc	1ff
.	2c	2g	.	2cc	2ee
.	2G	2g	.	2b	2dd
=155	=155	=155	=155	=155	=155
1r	2.A	2e	1r	2.a	2.cc
.	.	2f#	.	.	.
.	4A	.	.	4a	4cc
2r	2G	1g	2r	2d	1b
2G	2G	.	2B	2d	.
=156	=156	=156	=156	=156	=156
2G	2B	0r	2d	2g	0r
2G	2B	.	2d	2g	.
2.C	2.c	.	2.e	2.g	.
4C	4c	.	4e	4g	.
=157	=157	=157	=157	=157	=157
2G	2B	0r	2d	2g	0r
2D	2A	.	2d	2f#	.
2.E	2.G	.	2B	2.g	.
.	.	.	2c#	.	.
4E	4G	.	.	4g	.
=158	=158	=158	=158	=158	=158
1D	2A	2r	1d	2f	2r
.	2d	2f	.	2a	2dd
1r	2.c	2g	1r	2cc	2.ee
.	.	2e	.	2g	.
.	4B	.	.	.	4dd
=159	=159	=159	=159	=159	=159
0r	2A	2f	0r	2a	2cc
.	2G	2g	.	2b	2b
.	2.F	2a	.	2.cc	2.a
.	.	[2f	.	.	.
.	4G	.	.	4b	4b
=160	=160	=160	=160	=160	=160
0r	2A	4f]	0r	2a	2cc
.	.	4e	.	.	.
.	2E	1e	.	2g	2b
.	1F	.	.	2cc	[1a
.	.	2d	.	4b	.
.	.	.	.	4a	.
=161	=161	=161	=161	=161	=161
1r	1E	1e	1r	2cc	2a]
.	.	.	.	2b	2g#
2.E	1r	2.e	2.B	2.g#	2.b
4E	.	4e	4B	4g#	4b
=162	=162	=162	=162	=162	=162
2E	0r	2e	2B	2g#	2b
2E	.	2e	2B	2g#	2b
1A	.	1e	1A	1a	1cc#
=163	=163	=163	=163	=163	=163
2D	0r	2f#	2A	2a	2dd
1G	.	1g	2B	1d	1b
.	.	.	2d	.	.
2E	.	2g	[2c	2e	2cc
=164	=164	=164	=164	=164	=164
1D	1r	2a	4c]	1f	1dd
.	.	.	8B	.	.
.	.	.	8A	.	.
.	.	2d	2B	.	.
1C	2r	2r	2c	2e	1ee
.	[2c	2g	[2e	2cc	.
=165	=165	=165	=165	=165	=165
0r	2c]	1a	2e]	2cc	0r
.	2d	.	1f	2.a	.
.	1B-	1d	.	.	.
.	.	.	.	4g	.
.	.	.	[2d	2g	.
=166	=166	=166	=166	=166	=166
1r	1A	1e	2d]	1a	1r
.	.	.	2c	.	.
2.G	1r	2.g	2.B	2.d	2.dd
4G	.	4g	4B	4d	4dd
=167	=167	=167	=167	=167	=167
2G	2.G	2g	2B	2d	2dd
2G	.	2g	2B	2d	2dd
.	4G	.	.	.	.
1C	2G	[1e	2.c	[1g	1ee
.	2G	.	.	.	.
.	.	.	4d	.	.
=168	=168	=168	=168	=168	=168
1C	1c	1e]	4e	1g]	0cc
.	.	.	4f	.	.
.	.	.	4g	.	.
.	.	.	4e	.	.
1F	1A	1c	[1f	[1a	.
=169	=169	=169	=169	=169	=169
2.D	2r	1d	2f]	1a]	1.ff
.	1d	.	2f	.	.
4E	.	.	.	.	.
4F	.	2A	2.a	2r	.
4G	.	.	.	.	.
2A	2c#	[2a	.	2e	2ee
.	.	.	4g	.	.
=170	=170	=170	=170	=170	=170
0D	1d	4a]	2f	1a	0dd
.	.	4g	.	.	.
.	.	4f	2d	.	.
.	.	4e	.	.	.
.	[1A	1d	1f	1a	.
=171	=171	=171	=171	=171	=171
1AA	1A]	2c#	2e	1a	1ee
.	.	2e	2A	.	.
1r	1r	1f	1d	1a	2r
.	.	.	.	.	2a
=172	=172	=172	=172	=172	=172
0r	0r	2.g	2G	1b	1dd
.	.	.	2g	.	.
.	.	4f	.	.	.
.	.	1e	4g	1b	2g
.	.	.	4f	.	.
.	.	.	4e	.	2gg
.	.	.	4d	.	.
=173	=173	=173	=173	=173	=173
0r	0r	2.e	1.c	2r	4gg
.	.	.	.	.	4ff
.	.	.	.	2cc	4ee
.	.	4f	.	.	4dd
.	.	2g	.	4cc	4ee
.	.	.	.	4b	4dd
.	.	[2a	2c	4a	4cc
.	.	.	.	4g	4b
=174	=174	=174	=174	=174	=174
0r	0r	2a]	1d	2f	2a
.	.	2f#	.	1a	2dd
.	.	1g	2.e	.	2b
.	.	.	.	[2g	2cc#
.	.	.	4e	.	.
=175	=175	=175	=175	=175	=175
1D	2r	2.a	1d	2g]	0dd
.	2A	.	.	2f#	.
.	.	4a	.	.	.
1G	1B	1g	1d	2g	.
.	.	.	.	2d	.
=176	=176	=176	=176	=176	=176
2C	2c	2r	1e	1g	0r
2c	2e	2c	.	.	.
4c	4e	1e	2g	2c	.
4B	4d	.	.	.	.
4A	4c	.	2a	2cc	.
4G	4B	.	.	.	.
=177	=177	=177	=177	=177	=177
1.F	1.A	1.f	4a	4cc	0r
.	.	.	4g	4b	.
.	.	.	4f	4a	.
.	.	.	4e	4g	.
.	.	.	2d	4a	.
.	.	.	.	4g	.
2F	2A	2a	2c	8a	.
.	.	.	.	8g	.
.	.	.	.	8f	.
.	.	.	.	8e	.
=178	=178	=178	=178	=178	=178
2G	4B	2g	2B	2d	1r
.	4G	.	.	.	.
2A	1c	2f	2A	2c	.
1G	.	2.g	2B	2d	2r
.	2B	.	[2G	2d	2dd
.	.	4g	.	.	.
=179	=179	=179	=179	=179	=179
1C	1c	2g	2G]	2c	1ee
.	.	2e	1c	2g	.
1F	1A	[1f	.	1a	2cc
.	.	.	2A	.	2cc
=180	=180	=180	=180	=180	=180
2D	1d	1f]	2A	2a	2ff
2D	.	.	2.d	2a	1dd
2.G	2B	2d	.	2g	.
.	.	.	4c	.	.
.	2G	2d	4B	2d	[2gg
4F	.	.	4A	.	.
=181	=181	=181	=181	=181	=181
4E	2B	2.g	1G	2.e	4gg]
4D	.	.	.	.	4ff
1C	2c	.	.	.	4ee
.	.	4f	.	4f	4dd
.	2.G	2e	1c	2g	2cc
2C	.	2e	.	2g	2cc
.	4A	.	.	.	.
=182	=182	=182	=182	=182	=182
1G	4B	2d	1.B	1g	0dd
.	4c	.	.	.	.
.	2.d	2G	.	.	.
2G	.	2.B	.	2d	.
.	4d	.	.	.	.
2G	2B	.	2G	[2g	.
.	.	4c	.	.	.
=183	=183	=183	=183	=183	=183
0D	0A	1d	2A	2g]	0dd
.	.	.	1d	4f#	.
.	.	.	.	4e	.
.	.	1d	.	1f#	.
.	.	.	2A	.	.
=184	=184	=184	=184	=184	=184
0G	0G	0d	0B	0g	0dd
==	==	==	==	==	==
*-	*-	*-	*-	*-	*-
!!!CDT: 1525/^1526/-1594/2/2
!!!OCY: Italia
!!!AGN: Mass (Parody)
!!!AST: renaissance, vocal
!!!ASW: Motet (Unidentified)
!!!PWK: Masses, Book 12
!!!RNB: Cadence finals: D
!!!YOR: Le Opere Complete, v. 29, p. 197
!!!YOO: Rome, Italy: Fratelli Scalera
!!!END: 1992//
!!!EED: John Miller
!!!YEC: Copyright 2000, John Miller
!!!YEN: United States of America
!!!YEM: Rights to all derivative electronic formats reserved.
!!!YEM: Refer to licensing agreement for further details.
!!!YEM: This file must be accompanied by the licensing agreement.
!!!YEM: A copy of the licensing agreement may be found at http://www.music-cog.ohio-state.edu/HumdrumDatabases/Palestrina/license.txt
!!!EMD: converted to Humdrum by Bret Aarden
